packages/icons/src/spark-small.svg

<svg width="24" height="24" viewBox="0 0 24 24" fill="none" xmlns="http://www.w3.org/2000/svg">
<path fill-rule="evenodd" clip-rule="evenodd" d="M13.5685 10.6779L12.031 7.85375L10.6867 10.5736L7.89667 11.9305L10.6992 13.3503L12.0226 16.0836L13.3444 13.3535L16.1237 11.9312L13.5685 10.6779ZM19 11.6095V12.2068L14.5173 14.5007L12.3389 19H11.7063L9.52789 14.5007L5 12.2068V11.6095L9.52789 9.40741L11.7063 5H12.2485L14.698 9.4993L19 11.6095Z" fill="black"/>
</svg>

<svg xmlns="http://www.w3.org/2000/svg" width="24" height="24" fill="none" viewBox="0 0 24 24">
  <path fill="#000" fill-rule="evenodd" d="M13.569 10.678 12.03 7.854l-1.344 2.72-2.79 1.357 2.802 1.42 1.324 2.733 1.321-2.73 2.78-1.423-2.555-1.253Zm5.431.931v.598L14.517 14.5 12.34 19h-.633l-2.178-4.5L5 12.208v-.598l4.528-2.202L11.706 5h.543l2.449 4.5L19 11.61Z" clip-rule="evenodd"/>
</svg>
